X: 305726
M: 2/4
L: 1/16
K: C
{d}cBcd ez G2 | {d}cBcd ez e2 | d3e dcBA | GFE2 G2z2 |\
{d}cBcd ez G2 | {d}cBcd e2e2 | d2^fe dcBA | G3AG2 H|]
[c4E4] [e4G4] | g4 c'2e2 | {e}d>cB>c d2e2 | c>GE>G c2c2 |\
(dG)G2 (dG)G2 | cde2 {f}edef | (ag)fe (gf).d.B | (G4 c2) |]
!p!EF |\


